X:182
T:By Grace I'm Saved
%%stretchlast false
M:none
L:1/4
K:Eb clef=C1
"^i"[E,,E] "^I"[E,G,EB] "^I¹"[G,,B,EG] [A,,B,EB] | "^♯iii°"[B,,A,Dc] "^vi"[C,F,EB] "^IV²"[E,CEA] "^I²"[B,,B,EG] | "^V"[B,,B,DF] "^i"[E,,B,EF] "^I"[E,,G,E] [E,G,E] | "^iii¹"[B,,B,DG] "^v"[C,B,CF] "^I"[F,G,DE] [E,A,EF] | "^i¹"[A,,B,EG] "^IV²"[E,CEA] "^iii¹"[B,,B,DG] "^V"[B,,B,DF] | "^i"[E,,B,EF] "^I"[E,G,EB] "^I¹"[G,,B,EG] [A,,B,EB] | "^♯iii°"[B,,A,Dc] "^vi"[C,F,EB] "^IV²"[E,CEA] "^I²"[B,,B,EG] | "^V"[B,,B,DF] "^i"[E,,B,EF] "^I"[E,,G,E] [E,G,E] | "^iii¹"[B,,B,DG] "^v"[C,B,CF] "^I"[F,G,DE] [E,A,EF] | "^i¹"[A,,B,EG] "^IV²"[E,CEA] "^iii¹"[B,,B,DG] "^V"[B,,B,DF] | [B,,B,DF] "^v"[C,B,CF] "^Vmaj7¹"[D,=A,B,F] [E,F,B,F] | "^I"[D,E,FG] "^i"[E,F,EB] "^iii"[F,G,CB] "^Vmaj7"[B,,F,D=A] | "^V"[B,,F,DB] "^V¹"[D,F,FB] "^i"[E,B,EB] "^I¹"[G,,B,EG] | "^i¹"[A,,B,E] "^ii"[G,,A,Fc] "^♯iii"[B,,CFA] "^I²"[B,,B,EG] | [B,,B,EG] "^V7"[B,,A,DF] [E,,A,B,F] "^I"[E,,G,B,E]4 |]
